icons/svgs/chart-mixed-solid.svg

<svg width="24" height="24" viewBox="0 0 24 24" fill="none" xmlns="http://www.w3.org/2000/svg">
<path d="M21.5311 5.47653L15.2811 10.4765C14.8123 10.8672 14.1873 10.8672 13.7186 10.5156L9.49984 7.35153L4.03109 11.7265C3.48422 12.1562 2.70297 12.0781 2.27328 11.5312C1.84359 11.0234 1.92172 10.2031 2.46859 9.77341L8.71859 4.77341C9.14828 4.42185 9.77328 4.42185 10.242 4.77341L14.4608 7.93747L19.9686 3.52341C20.4764 3.09372 21.2967 3.21091 21.7264 3.71872C22.1561 4.2656 22.0389 5.04685 21.5311 5.47653ZM8.24984 12C8.24984 11.3359 8.79672 10.75 9.49984 10.75C10.1639 10.75 10.7498 11.3359 10.7498 12V19.5C10.7498 20.2031 10.1639 20.75 9.49984 20.75C8.79672 20.75 8.24984 20.2031 8.24984 19.5V12ZM3.24984 15.75C3.24984 15.0859 3.79672 14.5 4.49984 14.5C5.1639 14.5 5.74984 15.0859 5.74984 15.75V19.5C5.74984 20.2031 5.1639 20.75 4.49984 20.75C3.79672 20.75 3.24984 20.2031 3.24984 19.5V15.75ZM14.4998 13.25C15.1639 13.25 15.7498 13.8359 15.7498 14.5V19.5C15.7498 20.2031 15.1639 20.75 14.4998 20.75C13.7967 20.75 13.2498 20.2031 13.2498 19.5V14.5C13.2498 13.8359 13.7967 13.25 14.4998 13.25ZM18.2498 12C18.2498 11.3359 18.7967 10.75 19.4998 10.75C20.1639 10.75 20.7498 11.3359 20.7498 12V19.5C20.7498 20.2031 20.1639 20.75 19.4998 20.75C18.7967 20.75 18.2498 20.2031 18.2498 19.5V12Z" fill="black"/>
</svg>

<svg xmlns="http://www.w3.org/2000/svg" width="24" height="24" fill="currentColor" class="icon-chart-mixed-solid" viewBox="0 0 24 24">
  <mask id="a" width="21" height="18" x="1" y="3" maskUnits="userSpaceOnUse" style="mask-type:alpha">
    <path d="m21.531 5.477-6.25 5c-.469.39-1.094.39-1.562.039l-4.22-3.164-5.468 4.374a1.245 1.245 0 0 1-1.758-.195c-.43-.508-.351-1.328.196-1.758l6.25-5c.43-.351 1.054-.351 1.523 0l4.219 3.164 5.508-4.414c.507-.43 1.328-.312 1.757.196.43.547.313 1.328-.195 1.758M8.25 12c0-.664.547-1.25 1.25-1.25.664 0 1.25.586 1.25 1.25v7.5c0 .703-.586 1.25-1.25 1.25-.703 0-1.25-.547-1.25-1.25zm-5 3.75c0-.664.547-1.25 1.25-1.25.664 0 1.25.586 1.25 1.25v3.75c0 .703-.586 1.25-1.25 1.25-.703 0-1.25-.547-1.25-1.25zm11.25-2.5c.664 0 1.25.586 1.25 1.25v5c0 .703-.586 1.25-1.25 1.25-.703 0-1.25-.547-1.25-1.25v-5c0-.664.547-1.25 1.25-1.25M18.25 12c0-.664.547-1.25 1.25-1.25.664 0 1.25.586 1.25 1.25v7.5c0 .703-.586 1.25-1.25 1.25-.703 0-1.25-.547-1.25-1.25z"/>
  </mask>
  <g mask="url(#a)">
    <path d="M0 0h24v24H0z"/>
  </g>
</svg>
